src/icons/xml.svg

<?xml version="1.0" encoding="UTF-8"?>
<svg xmlns="http://www.w3.org/2000/svg" xmlns:xlink="http://www.w3.org/1999/xlink" width="23.04" height="32" viewBox="0 0 23.04 32" version="1.1">
<defs>
<linearGradient id="linear0" gradientUnits="userSpaceOnUse" x1="36" y1="97" x2="36" y2="-1" gradientTransform="matrix(1,0,0,1,0,2)">
<stop offset="0" style="stop-color:rgb(78.431374%,83.137256%,85.882354%);stop-opacity:1;"/>
<stop offset="0.139" style="stop-color:rgb(84.705883%,88.235295%,90.196079%);stop-opacity:1;"/>
<stop offset="0.359" style="stop-color:rgb(92.156863%,94.117647%,95.294118%);stop-opacity:1;"/>
<stop offset="0.617" style="stop-color:rgb(97.647059%,98.039216%,98.431373%);stop-opacity:1;"/>
<stop offset="1" style="stop-color:rgb(100%,100%,100%);stop-opacity:1;"/>
</linearGradient>
<filter id="alpha" filterUnits="objectBoundingBox" x="0%" y="0%" width="100%" height="100%">
  <feColorMatrix type="matrix" in="SourceGraphic" values="0 0 0 0 1 0 0 0 0 1 0 0 0 0 1 0 0 0 1 0"/>
</filter>
<mask id="mask0">
  <g filter="url(#alpha)">
<rect x="0" y="0" width="23.04" height="32" style="fill:rgb(0%,0%,0%);fill-opacity:0.9;stroke:none;"/>
  </g>
</mask>
<linearGradient id="linear1" gradientUnits="userSpaceOnUse" x1="19.014" y1="60.792999" x2="19.014" y2="32.603001" >
<stop offset="0" style="stop-color:rgb(67.843139%,80.000001%,86.274511%);stop-opacity:1;"/>
<stop offset="0.153" style="stop-color:rgb(60.392159%,72.549021%,78.823531%);stop-opacity:1;"/>
<stop offset="0.529" style="stop-color:rgb(43.921569%,56.078434%,62.352943%);stop-opacity:1;"/>
<stop offset="0.824" style="stop-color:rgb(33.725491%,46.27451%,52.156866%);stop-opacity:1;"/>
<stop offset="1" style="stop-color:rgb(29.803923%,42.352942%,48.235294%);stop-opacity:1;"/>
</linearGradient>
<linearGradient id="linear2" gradientUnits="userSpaceOnUse" x1="19.014" y1="62.979" x2="19.014" y2="30.417999" >
<stop offset="0" style="stop-color:rgb(67.843139%,80.000001%,86.274511%);stop-opacity:1;"/>
<stop offset="0.153" style="stop-color:rgb(60.392159%,72.549021%,78.823531%);stop-opacity:1;"/>
<stop offset="0.529" style="stop-color:rgb(43.921569%,56.078434%,62.352943%);stop-opacity:1;"/>
<stop offset="0.824" style="stop-color:rgb(33.725491%,46.27451%,52.156866%);stop-opacity:1;"/>
<stop offset="1" style="stop-color:rgb(29.803923%,42.352942%,48.235294%);stop-opacity:1;"/>
</linearGradient>
<linearGradient id="linear3" gradientUnits="userSpaceOnUse" x1="36.686001" y1="64.5" x2="36.686001" y2="29.5" >
<stop offset="0" style="stop-color:rgb(67.843139%,80.000001%,86.274511%);stop-opacity:1;"/>
<stop offset="0.153" style="stop-color:rgb(60.392159%,72.549021%,78.823531%);stop-opacity:1;"/>
<stop offset="0.529" style="stop-color:rgb(43.921569%,56.078434%,62.352943%);stop-opacity:1;"/>
<stop offset="0.824" style="stop-color:rgb(33.725491%,46.27451%,52.156866%);stop-opacity:1;"/>
<stop offset="1" style="stop-color:rgb(29.803923%,42.352942%,48.235294%);stop-opacity:1;"/>
</linearGradient>
<linearGradient id="linear4" gradientUnits="userSpaceOnUse" x1="36.688" y1="65.5" x2="36.688" y2="28.5" >
<stop offset="0" style="stop-color:rgb(67.843139%,80.000001%,86.274511%);stop-opacity:1;"/>
<stop offset="0.153" style="stop-color:rgb(60.392159%,72.549021%,78.823531%);stop-opacity:1;"/>
<stop offset="0.529" style="stop-color:rgb(43.921569%,56.078434%,62.352943%);stop-opacity:1;"/>
<stop offset="0.824" style="stop-color:rgb(33.725491%,46.27451%,52.156866%);stop-opacity:1;"/>
<stop offset="1" style="stop-color:rgb(29.803923%,42.352942%,48.235294%);stop-opacity:1;"/>
</linearGradient>
<linearGradient id="linear5" gradientUnits="userSpaceOnUse" x1="54.186001" y1="61.051998" x2="54.186001" y2="32.689999" >
<stop offset="0" style="stop-color:rgb(67.843139%,80.000001%,86.274511%);stop-opacity:1;"/>
<stop offset="0.153" style="stop-color:rgb(60.392159%,72.549021%,78.823531%);stop-opacity:1;"/>
<stop offset="0.529" style="stop-color:rgb(43.921569%,56.078434%,62.352943%);stop-opacity:1;"/>
<stop offset="0.824" style="stop-color:rgb(33.725491%,46.27451%,52.156866%);stop-opacity:1;"/>
<stop offset="1" style="stop-color:rgb(29.803923%,42.352942%,48.235294%);stop-opacity:1;"/>
</linearGradient>
<linearGradient id="linear6" gradientUnits="userSpaceOnUse" x1="54.186001" y1="63.237999" x2="54.186001" y2="30.504" >
<stop offset="0" style="stop-color:rgb(67.843139%,80.000001%,86.274511%);stop-opacity:1;"/>
<stop offset="0.153" style="stop-color:rgb(60.392159%,72.549021%,78.823531%);stop-opacity:1;"/>
<stop offset="0.529" style="stop-color:rgb(43.921569%,56.078434%,62.352943%);stop-opacity:1;"/>
<stop offset="0.824" style="stop-color:rgb(33.725491%,46.27451%,52.156866%);stop-opacity:1;"/>
<stop offset="1" style="stop-color:rgb(29.803923%,42.352942%,48.235294%);stop-opacity:1;"/>
</linearGradient>
<clipPath id="clip1">
  <rect x="0" y="0" width="24" height="32"/>
</clipPath>
<g id="surface5" clip-path="url(#clip1)">
<path style="fill-rule:nonzero;fill:url(#linear1);stroke-width:2;stroke-linecap:butt;stroke-linejoin:miter;stroke:url(#linear2);stroke-miterlimit:10;" d="M 11.999512 44.702148 L 26.000977 32.60498 L 26.000977 38.696289 L 16.503906 46.594238 L 16.503906 46.704102 L 26.000977 54.602051 L 26.000977 60.705566 L 11.999512 48.706055 Z M 11.999512 44.702148 " transform="matrix(0.32,0,0,0.32,0,0)"/>
<path style="fill-rule:nonzero;fill:url(#linear3);stroke-width:2;stroke-linecap:butt;stroke-linejoin:miter;stroke:url(#linear4);stroke-miterlimit:10;" d="M 38.40332 29.504395 L 42.102051 29.504395 L 34.899902 64.501953 L 31.298828 64.501953 Z M 38.40332 29.504395 " transform="matrix(0.32,0,0,0.32,0,0)"/>
<path style="fill-rule:nonzero;fill:url(#linear5);stroke-width:2;stroke-linecap:butt;stroke-linejoin:miter;stroke:url(#linear6);stroke-miterlimit:10;" d="M 47.20459 54.797363 L 56.70166 46.899414 L 56.70166 46.801758 L 47.20459 38.903809 L 47.20459 32.800293 L 61.206055 44.897461 L 61.206055 48.999023 L 47.20459 61.096191 Z M 47.20459 54.797363 " transform="matrix(0.32,0,0,0.32,0,0)"/>
</g>
<linearGradient id="linear7" gradientUnits="userSpaceOnUse" x1="45.036999" y1="25.813" x2="58.536999" y2="12.313" gradientTransform="matrix(1,0,0,1,0,2)">
<stop offset="0" style="stop-color:rgb(100%,100%,100%);stop-opacity:1;"/>
<stop offset="0.35" style="stop-color:rgb(98.039216%,98.431373%,98.431373%);stop-opacity:1;"/>
<stop offset="0.532" style="stop-color:rgb(92.941177%,94.509804%,95.686275%);stop-opacity:1;"/>
<stop offset="0.675" style="stop-color:rgb(86.666667%,89.803922%,91.37255%);stop-opacity:1;"/>
<stop offset="0.799" style="stop-color:rgb(78.039217%,82.745099%,85.490197%);stop-opacity:1;"/>
<stop offset="0.908" style="stop-color:rgb(67.843139%,74.117649%,78.039217%);stop-opacity:1;"/>
<stop offset="1" style="stop-color:rgb(57.254905%,64.705884%,69.01961%);stop-opacity:1;"/>
</linearGradient>
</defs>
<g id="surface1">
<path style="fill-rule:nonzero;fill:url(#linear0);stroke-width:2;stroke-linecap:butt;stroke-linejoin:miter;stroke:rgb(44.313726%,56.862748%,63.137257%);stroke-opacity:1;stroke-miterlimit:4;" d="M 44.995117 1.000977 L 71.99707 27.697754 L 71.99707 98.999023 L 0 98.999023 L 0 1.000977 Z M 44.995117 1.000977 " transform="matrix(0.32,0,0,0.32,0,0)"/>
<use xlink:href="#surface5" mask="url(#mask0)"/>
<path style="fill-rule:nonzero;fill:url(#linear7);stroke-width:2;stroke-linecap:butt;stroke-linejoin:bevel;stroke:rgb(44.313726%,56.862748%,63.137257%);stroke-opacity:1;stroke-miterlimit:4;" d="M 44.995117 1.000977 L 71.99707 27.697754 L 44.995117 27.697754 Z M 44.995117 1.000977 " transform="matrix(0.32,0,0,0.32,0,0)"/>
<path style=" stroke:none;fill-rule:nonzero;fill:rgb(29.803923%,42.352942%,48.235294%);fill-opacity:1;" d="M 2.59375 29.28125 L 4.734375 26.046875 L 2.816406 23.105469 L 4.289062 23.105469 L 5.535156 25.089844 L 6.753906 23.105469 L 8.222656 23.105469 L 6.273438 26.113281 L 8.414062 29.28125 L 6.878906 29.28125 L 5.503906 27.136719 L 4.128906 29.28125 Z M 9.023438 29.28125 L 9.023438 23.105469 L 10.910156 23.105469 L 12.03125 27.328125 L 13.152344 23.105469 L 15.039062 23.105469 L 15.039062 29.28125 L 13.855469 29.28125 L 13.855469 24.414062 L 12.609375 29.28125 L 11.390625 29.28125 L 10.144531 24.414062 L 10.144531 29.28125 Z M 16.351562 29.28125 L 16.351562 23.167969 L 17.601562 23.167969 L 17.601562 28.257812 L 20.734375 28.257812 L 20.734375 29.3125 L 16.351562 29.3125 Z M 16.351562 29.28125 "/>
</g>
</svg>

<svg xmlns:xlink="http://www.w3.org/1999/xlink" role="img" viewBox="0 0 23.04 32" xmlns="http://www.w3.org/2000/svg"><defs><linearGradient gradientTransform="translate(0 2)" gradientUnits="userSpaceOnUse" id="i" x1="36" x2="36" y1="97" y2="-1"><stop offset="0" style="stop-color:rgb(78.431374%,83.137256%,85.882354%);stop-opacity:1"/><stop offset=".139" style="stop-color:rgb(84.705883%,88.235295%,90.196079%);stop-opacity:1"/><stop offset=".359" style="stop-color:rgb(92.156863%,94.117647%,95.294118%);stop-opacity:1"/><stop offset=".617" style="stop-color:rgb(97.647059%,98.039216%,98.431373%);stop-opacity:1"/><stop offset="1" style="stop-color:rgb(100%,100%,100%);stop-opacity:1"/></linearGradient><linearGradient gradientUnits="userSpaceOnUse" id="c" x1="19.014" x2="19.014" y1="60.793" y2="32.603"><stop offset="0" style="stop-color:rgb(67.843139%,80.000001%,86.274511%);stop-opacity:1"/><stop offset=".153" style="stop-color:rgb(60.392159%,72.549021%,78.823531%);stop-opacity:1"/><stop offset=".529" style="stop-color:rgb(43.921569%,56.078434%,62.352943%);stop-opacity:1"/><stop offset=".824" style="stop-color:rgb(33.725491%,46.27451%,52.156866%);stop-opacity:1"/><stop offset="1" style="stop-color:rgb(29.803923%,42.352942%,48.235294%);stop-opacity:1"/></linearGradient><linearGradient gradientUnits="userSpaceOnUse" id="d" x1="19.014" x2="19.014" y1="62.979" y2="30.418"><stop offset="0" style="stop-color:rgb(67.843139%,80.000001%,86.274511%);stop-opacity:1"/><stop offset=".153" style="stop-color:rgb(60.392159%,72.549021%,78.823531%);stop-opacity:1"/><stop offset=".529" style="stop-color:rgb(43.921569%,56.078434%,62.352943%);stop-opacity:1"/><stop offset=".824" style="stop-color:rgb(33.725491%,46.27451%,52.156866%);stop-opacity:1"/><stop offset="1" style="stop-color:rgb(29.803923%,42.352942%,48.235294%);stop-opacity:1"/></linearGradient><linearGradient gradientUnits="userSpaceOnUse" id="e" x1="36.686" x2="36.686" y1="64.5" y2="29.5"><stop offset="0" style="stop-color:rgb(67.843139%,80.000001%,86.274511%);stop-opacity:1"/><stop offset=".153" style="stop-color:rgb(60.392159%,72.549021%,78.823531%);stop-opacity:1"/><stop offset=".529" style="stop-color:rgb(43.921569%,56.078434%,62.352943%);stop-opacity:1"/><stop offset=".824" style="stop-color:rgb(33.725491%,46.27451%,52.156866%);stop-opacity:1"/><stop offset="1" style="stop-color:rgb(29.803923%,42.352942%,48.235294%);stop-opacity:1"/></linearGradient><linearGradient gradientUnits="userSpaceOnUse" id="f" x1="36.688" x2="36.688" y1="65.5" y2="28.5"><stop offset="0" style="stop-color:rgb(67.843139%,80.000001%,86.274511%);stop-opacity:1"/><stop offset=".153" style="stop-color:rgb(60.392159%,72.549021%,78.823531%);stop-opacity:1"/><stop offset=".529" style="stop-color:rgb(43.921569%,56.078434%,62.352943%);stop-opacity:1"/><stop offset=".824" style="stop-color:rgb(33.725491%,46.27451%,52.156866%);stop-opacity:1"/><stop offset="1" style="stop-color:rgb(29.803923%,42.352942%,48.235294%);stop-opacity:1"/></linearGradient><linearGradient gradientUnits="userSpaceOnUse" id="g" x1="54.186" x2="54.186" y1="61.052" y2="32.69"><stop offset="0" style="stop-color:rgb(67.843139%,80.000001%,86.274511%);stop-opacity:1"/><stop offset=".153" style="stop-color:rgb(60.392159%,72.549021%,78.823531%);stop-opacity:1"/><stop offset=".529" style="stop-color:rgb(43.921569%,56.078434%,62.352943%);stop-opacity:1"/><stop offset=".824" style="stop-color:rgb(33.725491%,46.27451%,52.156866%);stop-opacity:1"/><stop offset="1" style="stop-color:rgb(29.803923%,42.352942%,48.235294%);stop-opacity:1"/></linearGradient><linearGradient gradientUnits="userSpaceOnUse" id="h" x1="54.186" x2="54.186" y1="63.238" y2="30.504"><stop offset="0" style="stop-color:rgb(67.843139%,80.000001%,86.274511%);stop-opacity:1"/><stop offset=".153" style="stop-color:rgb(60.392159%,72.549021%,78.823531%);stop-opacity:1"/><stop offset=".529" style="stop-color:rgb(43.921569%,56.078434%,62.352943%);stop-opacity:1"/><stop offset=".824" style="stop-color:rgb(33.725491%,46.27451%,52.156866%);stop-opacity:1"/><stop offset="1" style="stop-color:rgb(29.803923%,42.352942%,48.235294%);stop-opacity:1"/></linearGradient><linearGradient gradientTransform="translate(0 2)" gradientUnits="userSpaceOnUse" id="l" x1="45.037" x2="58.537" y1="25.813" y2="12.313"><stop offset="0" style="stop-color:rgb(100%,100%,100%);stop-opacity:1"/><stop offset=".35" style="stop-color:rgb(98.039216%,98.431373%,98.431373%);stop-opacity:1"/><stop offset=".532" style="stop-color:rgb(92.941177%,94.509804%,95.686275%);stop-opacity:1"/><stop offset=".675" style="stop-color:rgb(86.666667%,89.803922%,91.37255%);stop-opacity:1"/><stop offset=".799" style="stop-color:rgb(78.039217%,82.745099%,85.490197%);stop-opacity:1"/><stop offset=".908" style="stop-color:rgb(67.843139%,74.117649%,78.039217%);stop-opacity:1"/><stop offset="1" style="stop-color:rgb(57.254905%,64.705884%,69.01961%);stop-opacity:1"/></linearGradient><clipPath id="b"><path d="M0 0h24v32H0z"/></clipPath><filter filterUnits="objectBoundingBox" height="100%" id="a" width="100%" x="0%" y="0%"><feColorMatrix in="SourceGraphic" values="0 0 0 0 1 0 0 0 0 1 0 0 0 0 1 0 0 0 1 0"/></filter><mask id="k"><g filter="url(#a)"><path d="M0 0h23.04v32H0z" style="fill:rgb(0%,0%,0%);fill-opacity:0.9;stroke:none"/></g></mask><g clip-path="url(#b)" id="j"><path d="m12 44.702 14-12.097v6.091l-9.497 7.898v.11L26 54.602v6.104l-14-12Zm0 0" style="fill-rule:nonzero;fill:url(#c);stroke-width:2;stroke-linecap:butt;stroke-linejoin:miter;stroke:url(#d);stroke-miterlimit:10" transform="scale(.32)"/><path d="M38.403 29.504h3.7L34.9 64.502h-3.601Zm0 0" style="fill-rule:nonzero;fill:url(#e);stroke-width:2;stroke-linecap:butt;stroke-linejoin:miter;stroke:url(#f);stroke-miterlimit:10" transform="scale(.32)"/><path d="m47.205 54.797 9.497-7.898v-.097l-9.497-7.898V32.8l14.001 12.097V49L47.205 61.096Zm0 0" style="fill-rule:nonzero;fill:url(#g);stroke-width:2;stroke-linecap:butt;stroke-linejoin:miter;stroke:url(#h);stroke-miterlimit:10" transform="scale(.32)"/></g></defs><path d="m44.995 1.001 27.002 26.697v71.301H0V1.001Zm0 0" style="fill-rule:nonzero;fill:url(#i);stroke-width:2;stroke-linecap:butt;stroke-linejoin:miter;stroke:rgb(44.313726%,56.862748%,63.137257%);stroke-opacity:1;stroke-miterlimit:4" transform="scale(.32)"/><use xlink:href="#j" mask="url(#k)"/><path d="m44.995 1.001 27.002 26.697H44.995Zm0 0" style="fill-rule:nonzero;fill:url(#l);stroke-width:2;stroke-linecap:butt;stroke-linejoin:bevel;stroke:rgb(44.313726%,56.862748%,63.137257%);stroke-opacity:1;stroke-miterlimit:4" transform="scale(.32)"/><path d="m2.594 29.281 2.14-3.234-1.918-2.942H4.29l1.246 1.985 1.219-1.985h1.469l-1.95 3.008 2.141 3.168H6.88l-1.375-2.144-1.375 2.144Zm6.43 0v-6.176h1.886l1.121 4.223 1.121-4.223h1.887v6.176h-1.184v-4.867l-1.246 4.867h-1.218l-1.246-4.867v4.867Zm7.328 0v-6.113h1.25v5.09h3.132v1.055h-4.382Zm0 0" style="stroke:none;fill-rule:nonzero;fill:rgb(29.803923%,42.352942%,48.235294%);fill-opacity:1"/></svg>
